images/LOGOS_CLIENTES/BGH.svg

<svg width="72" height="29" viewBox="0 0 72 29" fill="none" xmlns="http://www.w3.org/2000/svg">
<path d="M7.58984 28.1647C7.42817 28.1488 6.91562 28.1 6.45083 28.0561C5.4001 27.957 4.16945 27.7508 3.15156 27.5035C2.10853 27.25 0.166381 26.6125 0.0650264 26.4904C0.006216 26.4195 -0.011099 22.9739 0.00235075 14.0181L0.0209223 1.64376L0.608795 1.4094C1.79847 0.93511 4.11846 0.419038 6.15688 0.175249C6.7025 0.109995 7.85988 0.0370051 8.72884 0.0130516C13.2897 -0.112675 15.9169 0.661469 17.8605 2.70379C18.3888 3.25895 18.5493 3.4904 18.8929 4.1926C19.4235 5.27707 19.537 5.74343 19.5846 7.03358C19.6472 8.73038 19.4431 9.81885 18.8454 10.9763C18.4729 11.6975 17.6636 12.5446 16.9332 12.9777L16.4296 13.2762L16.8597 13.4006C17.0962 13.4691 17.5874 13.6777 17.9511 13.8644C18.4853 14.1385 18.7481 14.3386 19.3177 14.9048C20.815 16.3933 21.5302 18.1515 21.5309 20.3456C21.5315 21.722 21.3562 22.5312 20.8224 23.6207C20.48 24.3193 20.3179 24.553 19.791 25.1066C18.5833 26.3757 17.1077 27.1746 15.0118 27.6941C13.6055 28.0427 12.551 28.1447 10.0883 28.1705C8.8758 28.1831 7.7515 28.1805 7.58984 28.1647ZM11.3375 23.2067C13.1162 23.0519 14.1476 22.7065 14.8736 22.0224C15.6175 21.3214 15.9303 20.6127 15.9303 19.6285C15.9303 18.5425 15.6011 17.735 14.8899 17.0765C14.4072 16.6296 13.8909 16.3631 13.0789 16.1417C12.565 16.0015 12.2481 15.9834 9.61066 15.9436L6.70802 15.8998L6.68401 15.7304C6.66802 15.6175 7.02165 14.9302 7.74256 13.6728C8.33797 12.6343 8.9002 11.6652 8.99195 11.5192L9.15877 11.2538L10.2482 11.2154C11.1545 11.1834 11.4385 11.1444 11.9384 10.9832C13.3365 10.5326 14.0897 9.51147 14.0923 8.06303C14.0938 7.26674 13.8729 6.68803 13.3571 6.13663C12.8644 5.60994 12.3375 5.31495 11.411 5.04706C10.8775 4.8928 10.677 4.87713 9.24323 4.87766C7.58822 4.87826 7.02044 4.94761 5.80783 5.29725L5.27508 5.45087V14.0711V22.6914L5.66087 22.8068C6.99419 23.2058 9.40051 23.3753 11.3375 23.2067ZM33.7871 28.0583C32.1784 27.8645 30.8258 27.4703 29.5682 26.829C25.6625 24.8371 23.7932 20.6572 23.7932 13.9157C23.7932 8.85334 24.8228 5.41337 27.0227 3.12585C28.3528 1.74286 29.812 0.921329 31.803 0.434565C33.2289 0.0859709 33.8619 0.0268689 36.1386 0.0298059C38.7042 0.0331151 40.2986 0.199767 42.5317 0.698034C43.4159 0.895329 43.5605 0.959742 43.5605 1.15641C43.5605 1.22201 43.0427 2.1806 42.4098 3.2866L41.2592 5.29751L40.885 5.2602C40.6793 5.23968 40.0645 5.14684 39.5189 5.05389C38.6647 4.90838 38.2613 4.88435 36.6162 4.88099C34.8418 4.87736 34.6611 4.88919 34.081 5.04698C31.169 5.83907 29.7246 8.04226 29.3711 12.2312C29.2691 13.4399 29.3264 15.6895 29.4877 16.8097C30.0911 20.9996 31.857 22.9484 35.3602 23.2905C36.7382 23.4251 38.3434 23.1903 39.7209 22.6528L40.2537 22.4449V19.1915V15.9381L37.0755 15.9189L33.8973 15.8998L33.8753 15.7103C33.8596 15.5755 34.1858 14.9396 35.006 13.5058C35.64 12.3975 36.209 11.4328 36.2703 11.3621C36.3742 11.2422 36.6872 11.2335 40.875 11.2335C44.2718 11.2335 45.3897 11.255 45.4564 11.3217C45.5238 11.3891 45.5443 13.124 45.5435 18.6885C45.5429 22.6917 45.5154 26.0095 45.4825 26.0614C45.4089 26.1774 43.4694 26.8826 42.2745 27.2277C41.2437 27.5255 40.0871 27.7822 39.0045 27.9535C38.1046 28.0959 34.6711 28.1649 33.7871 28.0583ZM50.3701 27.792C50.3431 27.765 50.3211 21.6321 50.3211 14.1632C50.3211 0.812466 50.3234 0.582126 50.4632 0.50734C50.5533 0.45912 51.5334 0.431269 53.1402 0.431269C55.3465 0.431269 55.6899 0.44623 55.7904 0.546744C55.8933 0.649581 55.9059 1.24071 55.9059 5.94786V11.2335H60.7779C65.8155 11.2335 65.8315 11.2344 65.8229 11.5238C65.8209 11.5864 65.2467 12.6297 64.5467 13.8422L63.2738 16.0467L59.5899 16.0658L55.9059 16.0848V21.8747C55.9059 26.28 55.8848 27.6857 55.8177 27.7528C55.7524 27.8181 55.0415 27.841 53.0743 27.841C51.6139 27.841 50.397 27.819 50.3701 27.792ZM66.4632 27.792C66.4362 27.765 66.4142 21.6321 66.4142 14.1632C66.4142 0.812466 66.4165 0.582126 66.5563 0.50734C66.75 0.403681 71.6632 0.403681 71.8569 0.50734C71.9966 0.582124 71.999 0.811705 71.999 14.096C71.999 21.5279 71.9789 27.6608 71.9544 27.7248C71.9149 27.8278 71.6041 27.841 69.211 27.841C67.7266 27.841 66.4901 27.819 66.4632 27.792Z" fill="black"/>
</svg>

<svg width="72" height="29" fill="none" xmlns="http://www.w3.org/2000/svg"><path d="m7.59 28.165-1.14-.109c-1.05-.099-2.28-.305-3.298-.553-1.043-.253-2.986-.89-3.087-1.013-.059-.07-.076-3.516-.063-12.472L.021 1.644l.588-.235C1.799.935 4.119.42 6.157.175A35.655 35.655 0 0 1 8.729.013c4.56-.126 7.188.648 9.131 2.69.529.556.69.787 1.033 1.49.53 1.084.644 1.55.692 2.84.062 1.697-.142 2.786-.74 3.943-.372.721-1.181 1.569-1.912 2.002l-.503.298.43.125c.236.068.727.277 1.091.463.534.274.797.475 1.367 1.04 1.497 1.49 2.212 3.247 2.213 5.442 0 1.376-.175 2.185-.709 3.275-.342.698-.504.932-1.031 1.486-1.208 1.269-2.683 2.068-4.78 2.587-1.405.349-2.46.45-4.923.477-1.212.012-2.336.01-2.498-.006Zm3.748-4.958c1.778-.155 2.81-.5 3.536-1.185.743-.7 1.056-1.41 1.056-2.393 0-1.087-.329-1.894-1.04-2.553-.483-.446-1-.713-1.811-.934-.514-.14-.83-.159-3.468-.198L6.708 15.9l-.024-.17c-.016-.113.338-.8 1.059-2.057a153.118 153.118 0 0 1 1.249-2.154l.167-.265 1.09-.039c.905-.032 1.19-.07 1.69-.232 1.397-.45 2.15-1.472 2.153-2.92.002-.796-.22-1.375-.735-1.926-.493-.527-1.02-.822-1.946-1.09-.534-.154-.734-.17-2.168-.17-1.655.001-2.223.07-3.435.42l-.533.154v17.24l.386.116c1.333.399 3.74.568 5.677.4Zm22.45 4.851c-1.61-.194-2.962-.588-4.22-1.229-3.905-1.992-5.775-6.172-5.775-12.913 0-5.063 1.03-8.503 3.23-10.79 1.33-1.383 2.789-2.205 4.78-2.691C33.229.086 33.862.027 36.139.03c2.565.003 4.16.17 6.393.668.884.197 1.029.262 1.029.458 0 .066-.518 1.025-1.151 2.13l-1.15 2.012-.375-.038c-.206-.02-.82-.113-1.366-.206-.854-.146-1.258-.17-2.903-.173-1.774-.004-1.955.008-2.535.166-2.912.792-4.356 2.995-4.71 7.184-.102 1.209-.045 3.459.117 4.579.603 4.19 2.369 6.138 5.872 6.48 1.378.135 2.983-.1 4.36-.637l.534-.208v-6.507l-3.178-.02-3.179-.018-.022-.19c-.015-.135.31-.77 1.131-2.204.634-1.108 1.203-2.073 1.264-2.144.104-.12.417-.129 4.605-.129 3.397 0 4.515.022 4.581.089.068.067.088 1.802.087 7.367 0 4.003-.028 7.32-.06 7.372-.074.116-2.014.822-3.208 1.167-1.031.297-2.188.554-3.27.725-.9.143-4.334.212-5.218.105Zm16.582-.266c-.027-.027-.049-6.16-.049-13.629 0-13.35.002-13.58.142-13.656.09-.048 1.07-.076 2.677-.076 2.206 0 2.55.015 2.65.116.103.103.116.694.116 5.4v5.286h4.872c5.038 0 5.054.001 5.045.29-.002.063-.576 1.107-1.276 2.32l-1.273 2.204-3.684.019-3.684.019v5.79c0 4.405-.021 5.81-.088 5.878-.066.065-.776.088-2.744.088-1.46 0-2.677-.022-2.704-.049Zm16.093 0c-.027-.027-.049-6.16-.049-13.629 0-13.35.002-13.58.142-13.656.194-.103 5.107-.103 5.3 0 .14.075.143.305.143 13.589 0 7.432-.02 13.565-.045 13.629-.04.103-.35.116-2.743.116-1.484 0-2.72-.022-2.748-.049Z" fill="#000"/></svg>
